X:75
T: Graf und Nonne (Die Nonne)
N: Q1155L
O: Mitteleuropa, Deutschland (BRD) , Niedersachsen, Dransfeld
N: Melodievergleich zu Q0155M., anderes Lied (genetisch verwandt ?).
N: Refrain auf sinnfreie Silben in der fuenften und siebten Zeile.
N: Schlusspause ergaenzt.
R: Klage - Lied ???
M: 3/4
L: 1/8
K: G
D2 | G2G2D2 | B,2D2G2 | B2A4 | z4
D2 | D2F2A2 | c3AF2 | G6 | z4
B2 | B3BB2 | B3AG2 | G2E4 | z4
c2 | B3AG2 | A3GF2 | G6 |
G,2B,2D2 | G6 | D2F2A2 | c4
d2 | B3AG2 | A3GF2 | G6 |
G,2B,2D2 | G6 | D2F2A2 | c4
d2 | B3AG2 | A3GF2 | G6 | z4

@@@ Tune index: 1785
